!!!COM: Bach, Johann Sebastian
!!!OTL@@DE: 370. Kommt her zu mir, spricht Gottes S&ouml;hn
!!!OTL@EN: Come to me, speaks the Son of God
!!!SCA: BWV 370
**kern	**kern	**kern	**kern
*staff2	*staff2	*staff1	*staff1
*Iorgan	*Iorgan	*Iorgan	*Iorgan
!bass	!tenor	!alto	!sprno
*clefF4	*clefF4	*clefG2	*clefG2
*k[]	*k[]	*k[]	*k[]
*met(C)	*met(C)	*met(C)	*met(C)
*M4/4	*M4/4	*M4/4	*M4/4
*MM60	*MM60	*MM60	*MM60
4AA\	8c/L	8e\L	4a/
.	8d/J	8f\J	.
=1	=1	=1	=1
4A\	8c/L	4e\	4a/
.	8B/J	.	.
4F\	4A/	8e\L	4a/
.	.	8d\J	.
4C\	8A/L	4e\	4ee/
.	8c/J	.	.
4D\	8B/L	4f\	4dd/
.	8A/J	.	.
=2	=2	=2	=2
4GG#\	4B/	4e\	4ee/
4AA\	4A/	4e\	4cc/
4E;\	4G#;/	4e;\	4b;/
8C\L	4A/	4e\	8a/L
8BB\J	.	.	8b/J
=3	=3	=3	=3
4AA\	4e/	4a\	4cc/
4E\	4e/	4g#\	4b/
8A\L	4e/	4a\	8cc/L
8B\J	.	.	8dd/J
4c\	4e/	8gn\L	4ee/
.	.	8a\J	.
=4	=4	=4	=4
4G#\	4e/	4b\	4dd/
4A\	4e/	4a\	4cc/
4E;\	4e;/	4g#;\	4b;/
8A\L	4e/	4a\	8cc/L
8Gn\J	.	.	8b/J
=5	=5	=5	=5
8F#\L	4A/	8d\L	4a/
8E\J	.	8e\J	.
8D\L	4d/	4f#\	4a/
8C\J	.	.	.
4BB\	4d/	4f#\	8dd/L
.	.	.	8cc/J
8E\L	4e/	4g\	8b/L
8C\J	.	.	8cc/J
=6	=6	=6	=6
2D\	8d/L	4g\	2a/
.	16c/L	.	.
.	16B/JJ	.	.
.	4c/	4f#\	.
4GG;\	4B;/	4d;\	4g;/
8C\L	4c/	8e\L	4g/
8D\J	.	8fn\J	.
=7	=7	=7	=7
!!linebreak: 2
8E\L	8G/L	4g\	4cc/
8F\J	8A/J	.	.
8G\L	8B/L	4d\	4b/
8F\J	8A/J	.	.
4E\	4G/	8e\L	8cc/L
.	.	8f\J	8dd/J
8D\L	4c/	4g\	4ee/
8C\J	.	.	.
=8	=8	=8	=8
4BB\	4d/	4g#\	4dd/
4AA\	4e/	4a\	4cc/
4E;\	4e;/	4g#;\	4b;/
8A\L	8c/L	4e\	8a/L
8G\J	8B/J	.	8b/J
=9	=9	=9	=9
8F#\L	4A/	4d\	4cc/
8D\J	.	.	.
8G\L	8B/L	4d\	4b/
8Fn\J	8A/J	.	.
8E\L	4G/	8e\L	8cc/L
8D\J	.	8f\J	8dd/J
8C\L	4c/	4g\	4ee/
8BB\J	.	.	.
=10	=10	=10	=10
8AA\L	8c/L	8f\L	4dd/
8GG#\J	8B/J	8e\J	.
4AA\	8B/L	4e\	4cc/
.	8A/J	.	.
4E;\	4G#;/	4e;\	4b;/
4E\	4B/	4g#\	4ee/
=11	=11	=11	=11
8A\L	4c/	4a\	4ee/
8G\J	.	.	.
8F\L	4c#/	4gn\	4ee/
8E\J	.	.	.
8F\L	4.d/	4.f\	8dd/L
8E\J	.	.	8cc/J
8D\L	.	.	8b/L
8Cn\J	8e/	8e\	8cc/J
=12	=12	=12	=12
8D\L	4d/	4f\	8b/L
8BB\J	.	.	8g#/J
8C\L	8c/L	8e\L	8a/L
8D\J	8A/J	8f\J	8b/J
8E\L	8G#/	8e\L	2b/
8D\J	4A/	8f\J	.
4E\	.	8e\L	.
.	8G#/	8d\J	.
=13	=13	=13	=13
2.AA;\	2.E;/	2.c#;\	2.a;/
==	==	==	==
*-	*-	*-	*-
!!!ENC: Craig Stuart Sapp
!!!END: 2004/12/06/
!!chor2scor: -l 2 -s 0.6 -o %b.pmx
